assets/svgs/misc-grey/MiscGrey30.svg

<svg width="39" height="38" viewBox="0 0 39 38" fill="none" xmlns="http://www.w3.org/2000/svg">
<path fill-rule="evenodd" clip-rule="evenodd" d="M34.61 23.87C34.88 23.87 35.11 23.64 35.11 23.37V3.65002C35.11 3.38002 34.88 3.15002 34.61 3.15002H14.89C14.62 3.15002 14.39 3.38002 14.39 3.65002V23.37C14.39 23.64 14.62 23.87 14.89 23.87H34.61ZM23.66 34.26C23.7899 34.26 23.91 34.14 23.91 34V26.87H14.89C12.96 26.87 11.39 25.29 11.39 23.37V13.54H3.44995C3.31995 13.54 3.19995 13.66 3.19995 13.8V34C3.19995 34.14 3.30995 34.26 3.44995 34.26H23.66ZM34.61 0.150024H14.89C12.96 0.150024 11.39 1.72002 11.39 3.65002V10.54H3.44995C1.65995 10.54 0.199951 12 0.199951 13.8V34C0.199951 35.8 1.65995 37.26 3.44995 37.26H23.66C25.45 37.26 26.91 35.8 26.91 34V26.87H34.61C36.54 26.87 38.11 25.29 38.11 23.37V3.65002C38.11 1.72002 36.54 0.150024 34.61 0.150024Z" fill="#1A1919"/>
</svg>

<svg xmlns="http://www.w3.org/2000/svg" fill="none" viewBox="0 0 39 38"><path fill="#1A1919" fill-rule="evenodd" d="M34.61 23.87c.27 0 .5-.23.5-.5V3.65c0-.27-.23-.5-.5-.5H14.89c-.27 0-.5.23-.5.5v19.72c0 .27.23.5.5.5h19.72zM23.66 34.26c.13 0 .25-.12.25-.26v-7.13h-9.02a3.51 3.51 0 01-3.5-3.5v-9.83H3.45c-.13 0-.25.12-.25.26V34c0 .14.11.26.25.26h20.21zM34.61.15H14.89c-1.93 0-3.5 1.57-3.5 3.5v6.89H3.45C1.66 10.54.2 12 .2 13.8V34c0 1.8 1.46 3.26 3.25 3.26h20.21c1.79 0 3.25-1.46 3.25-3.26v-7.13h7.7c1.93 0 3.5-1.58 3.5-3.5V3.65c0-1.93-1.57-3.5-3.5-3.5z" clip-rule="evenodd"/></svg>
